X:1
T:Title
%%score { 1 | 2 }
L:1/8
M:6/8
K:Ab
V:1 treble nm="Grand Piano"
V:2 bass 
V:1
 z3 z2[Q:1/4=75] [A,C]/[B,D]/ | [CE]>[_C=D][=CE] [Ec]>[_DB][CA] | B>=AB F2 [DF]/[DF]/ | G>AB E>GF | %4
 [CE]3- [CE]2 [A,C]/[B,D]/ | [CE]>[_C=D][=CE] [Ec]>[_DB][CA] |[M:7/8] B>=AB [Fd]3 [Fc]/[FB]/ | %7
[M:3/4] A>G AB/c/- cB | [CA]4- [CA]G/A/ | B>=A Bd- d/c/B | A>B d c2 c/c/ | e>c BA- A/B/[=DFc] | %12
 [EGB]4- [EGB][K:bass][E,A,C]/[E,B,D]/ | [CE]>[_C=D] [=CE][K:treble][Ec]- [Ec]/[_DB]/[CA] | %14
[M:7/8] B>=AB [Fd]3 [Fc]/[FB]/ |[M:3/4] A>G AB/c/- cB |[M:5/8] [CA]-[CA]- [CA]3 |[M:1/8] [Ge] | %18
[M:3/4] [Ge]>[GB] [GB][GB] [Gc][Gd] | [Fd][Ec] [=D_c] [E=c]2 [Ec] | [=Dc][DF] [DG][DA] [DB][Dc] | %21
[M:5/8] B-B- B3 |[M:3/16] F/E |[M:3/4] [CE]>[_C=D] [=CE][Ec]- [Ec]/[_DB]/[CA] | %24
[M:7/8] B>=AB [Fd]3 [Fc]/[FB]/ |[M:3/4] A>G AB/c/- cB |[M:5/8] [CA]-[CA]- [CA]3 |] %27
V:2
 z3 z2 [A,,E,]/[A,,E,]/ | [A,,A,]>[A,,A,][A,,A,] [A,,A,]>[A,,E,][A,,E,] | %2
 [D,F,D]>[D,F,D][D,F,D] [D,A,D]2 [B,,B,]/[B,,B,]/ | [E,B,D]>[E,A,C][E,G,D] [E,G,D]>[E,B,D][E,G,D] | %4
 [A,,A,]3- [A,,A,]2 [A,,E,]/[A,,E,]/ | [A,,A,]>[A,,A,][A,,A,] [A,,A,]>[A,,E,][A,,E,] | %6
[M:7/8] [D,F,D]>[D,F,D][D,F,D] [D,A,]3 [D,A,]/[D,D]/ | %7
[M:3/4] [E,CE]>[E,B,E] [E,CE][E,G,D]/[E,G,D]/- [E,G,D][E,G,D] | [A,,A,]4- [A,,A,][E,B,E]/[E,CE]/ | %9
 [E,DE]>[E,CE] [E,DE][E,G,F]- [E,G,F]/[E,A,E]/[E,DE] | [A,CE]>[A,E] [A,F] [A,E]2 [A,E]/[A,E]/ | %11
 [A,CA]>[A,EA][K:bass] [A,DE][A,CE]- [A,CE]/[F,=DF]/B,, | E,4- E,A,,/A,,/ | %13
 [A,,A,]>[A,,A,] [A,,A,][A,,A,]- [A,,A,]/[A,,E,]/[A,,E,] | %14
[M:7/8] [D,F,D]>[D,F,D][D,F,D] [D,A,]3 [D,A,]/[D,D]/ | %15
[M:3/4] [E,CE]>[E,B,E] [E,CE][E,G,D]/[E,G,D]/- [E,G,D][E,G,D] |[M:5/8] [A,,A,]-[A,,A,]- [A,,A,]3 | %17
[M:1/8] [E,B,] |[M:3/4] [E,B,]>[E,D] [E,D][E,D] [E,E][E,B,] | %19
 [A,,A,][A,,A,] [A,,A,] [A,,A,]2 [A,,A,] | [B,,F,][B,,B,] [B,,B,][B,,F,] [B,,F,][B,,A,] | %21
[M:5/8] [E,G,D]-[E,G,D]- [E,G,D]3 |[M:3/16] [E,G,D]3/2 | %23
[M:3/4] [A,,A,]>[A,,A,] [A,,A,][A,,A,]- [A,,A,]/[A,,E,]/[A,,E,] | %24
[M:7/8] [D,F,D]>[D,F,D][D,F,D] [D,A,]3 [D,A,]/[D,D]/ | %25
[M:3/4] [E,CE]>[E,B,E] [E,CE][E,G,D]/[E,G,D]/- [E,G,D][E,G,D] |[M:5/8] [A,,A,]-[A,,A,]- [A,,A,]3 |] %27

